X: 18
T: Jimmy Ward's
C: Jimmy Ward
R: Jig
M: 6/8
L: 1/8
K: G
|:G3 GAB|AGE GED|GGG AGE|GED DEF|
G3 GAB|AGE GAB|c2A BGE|1 DED DEF:|2 DED D2B||
|:cBA BAG|ABA AGB|cBA BGE|DED GAB|
cBA BAG|ABA ABc|dcB AGE|1 GED D2B:|2 GED DEF||